<?xml version='1.0' encoding='UTF-8'?>
<map version="1.10" tiledversion="1.10.2" orientation="orthogonal" renderorder="right-down" width="64" height="36" tilewidth="16" tileheight="16" infinite="0" nextlayerid="5" nextobjectid="3">
 <tileset firstgid="1" source="sunnyland.tsx" />
 <layer id="1" name="backdrop" width="64" height="36">
  <data encoding="csv">
418,420,416,419,415,418,420,416,419,415,418,420,416,419,415,418,420,416,419,415,418,420,416,419,415,418,420,416,419,415,418,420,416,419,415,418,420,416,419,415,418,420,416,419,415,418,420,416,419,415,418,420,416,419,415,418,420,416,419,415,418,420,416,419,
415,418,420,416,419,415,418,420,416,419,415,418,420,416,419,415,418,420,416,419,415,418,420,416,419,415,418,420,416,419,415,418,420,416,419,415,418,420,416,419,415,418,420,416,419,415,418,420,416,419,415,418,420,416,419,415,418,420,416,419,415,418,420,416,
419,415,418,420,416,419,415,418,420,416,419,415,418,420,416,419,415,418,420,416,419,415,418,420,416,419,415,418,420,416,419,415,418,420,416,419,415,418,420,416,419,415,418,420,416,419,415,418,420,416,419,415,418,420,416,419,415,418,420,416,419,415,418,420,
416,419,415,418,420,416,419,415,418,420,416,419,415,418,420,416,419,415,418,420,416,419,415,418,420,416,419,415,418,420,416,419,415,418,420,416,419,415,418,420,416,419,415,418,420,416,419,415,418,420,416,419,415,418,420,416,419,415,418,420,416,419,415,418,
420,416,419,415,418,420,416,419,415,418,420,416,419,415,418,420,416,419,415,418,420,416,419,415,418,420,416,419,415,418,420,416,419,415,418,420,416,419,415,418,420,416,419,415,418,420,416,419,415,418,420,416,419,415,418,420,416,419,415,418,420,416,419,415,
418,420,416,419,415,418,420,416,419,415,418,420,416,419,415,418,420,416,419,415,418,420,416,419,415,418,420,416,419,415,418,420,416,419,415,418,420,416,419,415,418,420,416,419,415,418,420,416,419,415,418,420,416,419,415,418,420,416,419,415,418,420,416,419,
415,418,420,416,419,415,418,420,416,419,415,418,420,416,419,415,418,420,416,419,415,418,420,416,419,415,418,420,416,419,415,418,420,416,419,415,418,420,416,419,415,418,420,416,419,415,418,420,416,419,415,418,420,416,419,415,418,420,416,419,415,418,420,416,
419,415,418,420,416,419,415,418,420,416,419,415,418,420,416,419,415,418,420,416,419,415,418,420,416,419,415,418,420,416,419,415,418,420,416,419,415,418,420,416,419,415,418,420,416,419,415,418,420,416,419,415,418,420,416,419,415,418,420,416,419,415,418,420,
416,419,415,418,420,416,419,415,418,420,416,419,415,418,420,416,419,415,418,420,416,419,415,418,420,416,419,415,418,420,416,419,415,418,420,416,419,415,418,420,416,419,415,418,420,416,419,415,418,420,416,419,415,418,420,416,419,415,418,420,416,419,415,418,
420,416,419,415,418,420,416,419,415,418,420,416,419,415,418,420,416,419,415,418,420,416,419,415,418,420,416,419,415,418,420,416,419,415,418,420,416,419,415,418,420,416,419,415,418,420,416,419,415,418,420,416,419,415,418,420,416,419,415,418,420,416,419,415,
418,420,416,419,415,418,420,416,419,415,418,420,416,419,415,418,420,416,419,415,418,420,416,419,415,418,420,416,419,415,418,420,416,419,415,418,420,416,419,415,418,420,416,419,415,418,420,416,419,415,418,420,416,419,415,418,420,416,419,415,418,420,416,419,
415,418,420,416,419,415,418,420,416,419,415,418,420,416,419,415,418,420,416,419,415,418,420,416,419,415,418,420,416,419,415,418,420,416,419,415,418,420,416,419,415,418,420,416,419,415,418,420,416,419,415,418,420,416,419,415,418,420,416,419,415,418,420,416,
419,415,418,420,416,419,415,418,420,416,419,415,418,420,416,419,415,418,420,416,419,415,418,420,416,419,415,418,420,416,419,415,418,420,416,419,415,418,420,416,419,415,418,420,416,419,415,418,420,416,419,415,418,420,416,419,415,418,420,416,419,415,418,420,
416,419,415,418,420,416,419,415,418,420,416,419,415,418,420,416,419,415,418,420,416,419,415,418,420,416,419,415,418,420,416,419,415,418,420,416,419,415,418,420,416,419,415,418,420,416,419,415,418,420,416,419,415,418,420,416,419,415,418,420,416,419,415,418,
420,416,419,415,418,420,416,419,415,418,420,416,419,415,418,420,416,419,415,418,420,416,419,415,418,420,416,419,415,418,420,416,419,415,418,420,416,419,415,418,420,416,419,415,418,420,416,419,415,418,420,416,419,415,418,420,416,419,415,418,420,416,419,415,
418,420,416,419,415,418,420,416,419,415,418,420,416,419,415,418,420,416,419,415,418,420,416,419,415,418,420,416,419,415,418,420,416,419,415,418,420,416,419,415,418,420,416,419,415,418,420,416,419,415,418,420,416,419,415,418,420,416,419,415,418,420,416,419,
415,418,420,416,419,415,418,420,416,419,415,418,420,416,419,415,418,420,416,419,415,418,420,416,419,415,418,420,416,419,415,418,420,416,419,415,418,420,416,419,415,418,420,416,419,415,418,420,416,419,415,418,420,416,419,415,418,420,416,419,415,418,420,416,
419,415,418,420,416,419,415,418,420,416,419,415,418,420,416,419,415,418,420,416,419,415,418,420,416,419,415,418,420,416,419,415,418,420,416,419,415,418,420,416,419,415,418,420,416,419,415,418,420,416,419,415,418,420,416,419,415,418,420,416,419,415,418,420,
416,419,415,418,420,416,419,415,418,420,416,419,415,418,420,416,419,415,418,420,416,419,415,418,420,416,419,415,418,420,416,419,415,418,420,416,419,415,418,420,416,419,415,418,420,416,419,415,418,420,416,419,415,418,420,416,419,415,418,420,416,419,415,418,
420,416,419,415,418,420,416,419,415,418,420,416,419,415,418,420,416,419,415,418,420,416,419,415,418,420,416,419,415,418,420,416,419,415,418,420,416,419,415,418,420,416,419,415,418,420,416,419,415,418,420,416,419,415,418,420,416,419,415,418,420,416,419,415,
418,420,416,419,415,418,420,416,419,415,418,420,416,419,415,418,420,416,419,415,418,420,416,419,415,418,420,416,419,415,418,420,416,419,415,418,420,416,419,415,418,420,416,419,415,418,420,416,419,415,418,420,416,419,415,418,420,416,419,415,418,420,416,419,
415,418,420,416,419,415,418,420,416,419,415,418,420,416,419,415,418,420,416,419,415,418,420,416,419,415,418,420,416,419,415,418,420,416,419,415,418,420,416,419,415,418,420,416,419,415,418,420,416,419,415,418,420,416,419,415,418,420,416,419,415,418,420,416,
419,415,418,420,416,419,415,418,420,416,419,415,418,420,416,419,415,418,420,416,419,415,418,420,416,419,415,418,420,416,419,415,418,420,416,419,415,418,420,416,419,415,418,420,416,419,415,418,420,416,419,415,418,420,416,419,415,418,420,416,419,415,418,420,
416,419,415,418,420,416,419,415,418,420,416,419,415,418,420,416,419,415,418,420,416,419,415,418,420,416,419,415,418,420,416,419,415,418,420,416,419,415,418,420,416,419,415,418,420,416,419,415,418,420,416,419,415,418,420,416,419,415,418,420,416,419,415,418,
420,416,419,415,418,420,416,419,415,418,420,416,419,415,418,420,416,419,415,418,420,416,419,415,418,420,416,419,415,418,420,416,419,415,418,420,416,419,415,418,420,416,419,415,418,420,416,419,415,418,420,416,419,415,418,420,416,419,415,418,420,416,419,415,
418,420,416,419,415,418,420,416,419,415,418,420,416,419,415,418,420,416,419,415,418,420,416,419,415,418,420,416,419,415,418,420,416,419,415,418,420,416,419,415,418,420,416,419,415,418,420,416,419,415,418,420,416,419,415,418,420,416,419,415,418,420,416,419,
415,418,420,416,419,415,418,420,416,419,415,418,420,416,419,415,418,420,416,419,415,418,420,416,419,415,418,420,416,419,415,418,420,416,419,415,418,420,416,419,415,418,420,416,419,415,418,420,416,419,415,418,420,416,419,415,418,420,416,419,415,418,420,416,
419,415,418,420,416,419,415,418,420,416,419,415,418,420,416,419,415,418,420,416,419,415,418,420,416,419,415,418,420,416,419,415,418,420,416,419,415,418,420,416,419,415,418,420,416,419,415,418,420,416,419,415,418,420,416,419,415,418,420,416,419,415,418,420,
416,419,415,418,420,416,419,415,418,420,416,419,415,418,420,416,419,415,418,420,416,419,415,418,420,416,419,415,418,420,416,419,415,418,420,416,419,415,418,420,416,419,415,418,420,416,419,415,418,420,416,419,415,418,420,416,419,415,418,420,416,419,415,418,
420,416,419,415,418,420,416,419,415,418,420,416,419,415,418,420,416,419,415,418,420,416,419,415,418,420,416,419,415,418,420,416,419,415,418,420,416,419,415,418,420,416,419,415,418,420,416,419,415,418,420,416,419,415,418,420,416,419,415,418,420,416,419,415,
418,420,416,419,415,418,420,416,419,415,418,420,416,419,415,418,420,416,419,415,418,420,416,419,415,418,420,416,419,415,418,420,416,419,415,418,420,416,419,415,418,420,416,419,415,418,420,416,419,415,418,420,416,419,415,418,420,416,419,415,418,420,416,419,
415,418,420,416,419,415,418,420,416,419,415,418,420,416,419,415,418,420,416,419,415,418,420,416,419,415,418,420,416,419,415,418,420,416,419,415,418,420,416,419,415,418,420,416,419,415,418,420,416,419,415,418,420,416,419,415,418,420,416,419,415,418,420,416,
419,415,418,420,416,419,415,418,420,416,419,415,418,420,416,419,415,418,420,416,419,415,418,420,416,419,415,418,420,416,419,415,418,420,416,419,415,418,420,416,419,415,418,420,416,419,415,418,420,416,419,415,418,420,416,419,415,418,420,416,419,415,418,420,
416,419,415,418,420,416,419,415,418,420,416,419,415,418,420,416,419,415,418,420,416,419,415,418,420,416,419,415,418,420,416,419,415,418,420,416,419,415,418,420,416,419,415,418,420,416,419,415,418,420,416,419,415,418,420,416,419,415,418,420,416,419,415,418,
420,416,419,415,418,420,416,419,415,418,420,416,419,415,418,420,416,419,415,418,420,416,419,415,418,420,416,419,415,418,420,416,419,415,418,420,416,419,415,418,420,416,419,415,418,420,416,419,415,418,420,416,419,415,418,420,416,419,415,418,420,416,419,415,
418,420,416,419,415,418,420,416,419,415,418,420,416,419,415,418,420,416,419,415,418,420,416,419,415,418,420,416,419,415,418,420,416,419,415,418,420,416,419,415,418,420,416,419,415,418,420,416,419,415,418,420,416,419,415,418,420,416,419,415,418,420,416,419
</data>
 </layer>
 <layer id="2" name="ground" width="64" height="36">
  <data encoding="csv">
0,0,0,0,0,0,0,0,0,0,0,0,0,0,0,0,0,0,0,0,0,0,0,0,0,0,0,0,0,0,0,0,0,0,0,0,0,0,0,0,0,0,0,0,0,0,0,0,0,0,0,0,0,0,0,0,0,0,0,0,0,0,0,0,
0,0,0,0,0,0,0,0,0,0,0,0,0,0,0,0,0,0,0,0,0,0,0,0,0,0,0,0,0,0,0,0,0,0,0,0,0,0,0,0,0,0,0,0,0,0,0,0,0,0,0,0,0,0,0,0,0,0,0,0,0,0,0,0,
0,0,0,0,0,0,0,0,0,0,0,0,0,0,0,0,0,0,0,0,0,0,0,0,0,0,0,0,0,0,0,0,0,0,0,0,0,0,0,0,0,0,0,0,0,0,0,0,0,0,0,0,0,0,0,0,0,0,0,0,0,0,0,0,
0,0,0,0,0,0,0,0,0,0,0,0,0,0,0,0,0,0,0,0,0,0,0,0,0,0,0,0,0,0,0,0,0,0,0,0,0,0,0,0,0,0,0,0,0,0,0,0,0,0,0,0,0,0,0,0,0,0,0,0,0,0,0,0,
0,0,0,0,0,0,0,0,0,0,0,0,0,0,0,0,0,0,0,0,0,0,0,0,0,0,0,0,0,0,0,0,0,0,0,0,0,0,0,0,0,0,0,0,0,0,0,0,0,0,0,0,0,0,0,0,0,0,0,0,0,0,0,0,
0,0,0,0,0,0,0,0,0,0,0,0,0,0,0,0,0,0,0,0,0,0,0,0,0,0,0,0,0,0,0,0,0,0,0,0,0,0,0,0,0,0,0,0,0,0,0,0,0,0,0,0,0,0,0,0,0,0,0,0,0,0,0,0,
0,0,0,0,0,0,0,0,0,0,0,0,0,0,0,0,0,0,0,0,0,0,0,0,0,0,0,0,0,0,0,0,0,0,0,0,0,0,0,0,0,0,0,0,0,0,0,0,0,0,0,0,0,0,0,0,0,0,0,0,0,0,0,0,
0,0,0,0,0,0,0,0,0,0,0,0,0,0,0,0,0,0,0,0,0,0,0,0,0,0,0,0,0,0,0,0,0,0,0,0,0,0,0,0,0,0,0,0,0,0,0,0,0,0,0,0,0,0,0,0,0,0,0,0,0,0,0,0,
0,0,0,0,0,0,0,0,0,0,0,0,0,0,0,0,0,0,0,0,0,0,0,0,0,0,0,0,0,0,0,0,0,0,0,0,0,0,0,0,0,0,0,0,0,0,0,0,0,0,0,0,0,0,0,0,0,0,0,0,0,0,0,0,
0,0,0,0,0,0,0,0,0,0,0,0,0,0,0,0,0,0,0,0,0,0,0,0,0,0,0,0,0,0,0,0,0,0,0,0,0,0,0,0,0,0,0,0,0,0,0,0,0,0,0,0,0,0,0,0,0,0,0,0,0,0,0,0,
0,0,0,0,0,0,0,0,0,0,0,0,0,0,0,0,0,0,0,0,0,0,0,0,0,0,0,0,0,0,0,0,0,0,0,0,0,0,0,0,0,0,0,0,0,0,0,0,0,0,0,0,0,0,0,0,0,0,0,0,0,0,0,0,
0,0,0,0,0,0,0,0,0,0,0,0,0,0,0,0,0,0,0,0,0,0,0,0,0,0,0,0,0,0,0,0,0,0,0,0,0,0,0,0,0,0,0,0,0,0,0,0,0,0,0,0,0,0,0,0,0,0,0,0,0,0,0,0,
0,0,0,0,0,0,0,0,0,0,0,0,0,0,0,0,0,0,0,0,0,0,0,0,0,0,0,0,0,0,0,0,0,0,0,0,0,0,0,0,0,0,0,0,0,0,0,0,0,0,0,0,0,0,0,0,0,0,0,0,0,0,0,0,
0,0,0,0,0,0,0,0,0,0,0,0,0,0,0,0,0,0,0,0,0,0,0,0,0,0,0,0,0,0,0,0,0,0,0,0,0,0,0,0,0,0,0,0,0,0,0,0,0,0,0,0,0,0,0,0,0,0,0,0,0,0,0,0,
0,0,0,0,0,0,0,0,0,0,0,0,0,0,0,0,0,0,0,0,0,0,0,0,0,0,0,0,0,0,0,0,0,0,0,0,0,0,0,0,0,0,0,0,0,0,0,0,0,0,0,0,0,0,0,0,0,0,0,0,0,0,0,0,
0,0,0,0,0,0,0,0,0,0,0,0,0,0,0,0,0,0,0,0,0,0,0,0,0,0,0,0,0,0,0,0,0,0,0,0,0,0,0,0,0,0,0,0,0,0,0,0,0,0,0,0,0,0,0,0,0,0,0,0,0,0,0,0,
0,0,0,0,0,0,0,0,0,0,0,0,0,0,0,0,0,0,0,0,0,0,0,0,0,0,0,0,0,0,0,0,0,0,0,0,0,0,0,0,0,0,0,0,0,0,0,0,0,0,0,0,0,0,0,0,0,0,0,0,0,0,0,0,
0,0,0,0,0,0,0,0,0,0,0,0,0,0,0,0,0,0,0,0,0,0,0,0,0,0,0,0,0,0,0,0,0,0,0,0,0,0,0,0,0,0,0,0,0,0,0,0,0,0,0,0,0,0,0,0,0,0,0,0,0,0,0,0,
0,0,0,0,0,0,0,0,0,0,0,0,0,0,0,0,0,0,0,0,0,0,0,0,0,0,0,0,0,0,0,0,0,0,0,0,0,0,0,0,0,0,0,0,0,0,0,0,0,0,0,0,0,0,0,0,0,0,0,0,0,0,0,0,
0,0,0,0,0,0,0,0,0,0,0,0,0,0,0,0,0,0,0,0,0,0,0,0,0,0,0,0,0,0,0,0,0,0,0,0,0,0,0,0,0,0,0,0,0,0,0,0,0,0,0,0,0,0,0,0,0,0,0,0,0,0,0,0,
0,0,0,0,0,0,0,0,0,0,0,0,0,0,0,0,0,0,0,0,0,0,0,0,0,0,0,0,0,0,0,0,0,0,0,0,0,0,0,0,0,0,0,0,0,0,0,0,0,0,0,0,0,0,0,0,0,0,0,0,0,0,0,0,
0,0,0,0,0,0,0,0,0,0,0,0,0,0,0,0,0,0,0,0,0,0,0,0,0,0,0,0,0,0,0,0,0,0,0,0,0,0,0,0,0,0,0,0,0,0,0,0,0,0,0,0,0,0,0,0,0,0,0,0,0,0,0,0,
0,0,0,0,0,0,0,0,0,0,0,0,0,0,0,0,0,0,0,0,0,0,0,0,0,0,0,0,0,0,0,0,0,0,0,0,0,0,0,0,0,0,0,0,0,0,0,0,0,0,0,0,0,0,0,0,0,0,0,0,0,0,0,0,
0,0,0,0,0,0,0,0,0,0,0,0,0,0,0,0,0,0,0,0,0,0,0,0,0,0,0,0,0,0,0,0,0,0,0,0,0,0,0,0,0,0,0,0,0,0,0,0,0,0,0,0,0,0,0,0,0,0,0,0,0,0,0,0,
0,0,0,0,0,0,0,0,0,0,0,0,0,0,0,0,0,0,0,0,0,0,0,0,0,0,0,0,0,0,0,0,0,0,0,0,0,0,0,0,0,0,0,0,0,0,0,0,0,0,0,0,0,0,0,0,0,0,0,0,0,0,0,0,
0,0,0,0,0,0,0,0,0,0,0,0,0,0,0,0,0,0,0,0,0,0,0,0,0,0,0,0,0,0,0,0,0,0,0,0,0,0,0,0,0,0,0,0,0,0,0,0,0,0,0,0,0,0,0,0,0,0,0,0,0,0,0,0,
0,0,0,0,0,0,0,0,0,0,0,0,0,0,0,0,0,0,0,0,0,0,0,0,0,0,0,0,0,0,27,29,31,27,29,31,27,29,31,27,0,0,0,0,0,0,0,0,0,0,0,0,0,0,0,0,0,0,0,0,0,0,0,0,
0,0,0,0,0,0,0,0,0,0,0,0,0,0,0,0,0,0,0,0,0,0,0,0,0,0,0,0,0,0,127,129,131,77,81,127,129,131,77,81,0,0,0,0,0,0,0,0,0,0,0,0,0,0,0,0,0,0,0,0,0,0,0,0,
0,0,0,0,0,0,0,0,0,0,0,0,0,0,0,0,0,0,27,29,31,27,29,31,0,0,0,0,0,0,129,131,77,81,127,129,131,77,81,127,0,0,0,0,0,0,0,0,0,0,0,0,0,0,0,0,0,0,0,0,0,0,0,0,
0,0,0,0,0,0,0,0,0,0,0,0,0,0,0,0,0,0,127,129,131,77,81,127,0,0,0,0,0,0,131,77,81,127,129,131,77,81,127,129,0,0,0,0,0,0,29,31,27,29,31,27,0,0,0,0,0,0,0,0,0,0,0,0,
27,29,31,27,29,31,27,29,31,27,29,31,27,29,31,27,29,31,129,131,77,81,127,129,27,29,31,27,29,31,77,81,127,129,131,77,81,127,129,131,29,31,27,29,31,27,81,127,129,131,77,81,29,31,27,29,31,27,29,31,27,29,31,27,
81,127,129,131,77,81,127,129,131,77,81,127,129,131,77,81,127,129,131,77,81,127,129,131,77,81,127,129,131,77,81,127,129,131,77,81,127,129,131,77,81,127,129,131,77,81,127,129,131,77,81,127,129,131,77,81,127,129,131,77,81,127,129,131,
127,129,131,77,81,127,129,131,77,81,127,129,131,77,81,127,129,131,77,81,127,129,131,77,81,127,129,131,77,81,127,129,131,77,81,127,129,131,77,81,127,129,131,77,81,127,129,131,77,81,127,129,131,77,81,127,129,131,77,81,127,129,131,77,
129,131,77,81,127,129,131,77,81,127,129,131,77,81,127,129,131,77,81,127,129,131,77,81,127,129,131,77,81,127,129,131,77,81,127,129,131,77,81,127,129,131,77,81,127,129,131,77,81,127,129,131,77,81,127,129,131,77,81,127,129,131,77,81,
131,77,81,127,129,131,77,81,127,129,131,77,81,127,129,131,77,81,127,129,131,77,81,127,129,131,77,81,127,129,131,77,81,127,129,131,77,81,127,129,131,77,81,127,129,131,77,81,127,129,131,77,81,127,129,131,77,81,127,129,131,77,81,127,
77,81,127,129,131,77,81,127,129,131,77,81,127,129,131,77,81,127,129,131,77,81,127,129,131,77,81,127,129,131,77,81,127,129,131,77,81,127,129,131,77,81,127,129,131,77,81,127,129,131,77,81,127,129,131,77,81,127,129,131,77,81,127,129
</data>
 </layer>
 <layer id="3" name="decoration" width="64" height="36">
  <data encoding="csv">
0,0,0,0,0,0,0,0,0,0,0,0,0,0,0,0,0,0,0,0,0,0,0,0,0,0,0,0,0,0,0,0,0,0,0,0,0,0,0,0,0,0,0,0,0,0,0,0,0,0,0,0,0,0,0,0,0,0,0,0,0,0,0,0,
0,0,0,0,0,0,0,0,0,0,0,0,0,0,0,0,0,0,0,0,0,0,0,0,0,0,0,0,0,0,0,0,0,0,0,0,0,0,0,0,0,0,0,0,0,0,0,0,0,0,0,0,0,0,0,0,0,0,0,0,0,0,0,0,
0,0,0,0,0,0,0,0,0,0,0,0,0,0,0,0,0,0,0,0,0,0,0,0,0,0,0,0,0,0,0,0,0,0,0,0,0,0,0,0,0,0,0,0,0,0,0,0,0,0,0,0,0,0,0,0,0,0,0,0,0,0,0,0,
0,0,0,0,0,0,0,0,0,0,0,0,0,0,0,0,0,0,0,0,0,0,0,0,0,0,0,0,0,0,0,0,0,0,0,0,0,0,0,0,0,0,0,0,0,0,0,0,0,0,0,0,0,0,0,0,0,0,0,0,0,0,0,0,
0,0,0,0,0,0,0,0,0,0,0,0,0,0,0,0,0,0,0,0,0,0,0,0,0,0,0,0,0,0,0,0,0,0,0,0,0,0,0,0,0,0,0,0,0,0,0,0,0,0,0,0,0,0,0,0,0,0,0,0,0,0,0,0,
0,0,0,0,0,0,0,0,0,0,0,0,0,0,0,0,0,0,0,0,0,0,0,0,0,0,0,0,0,0,0,0,0,0,0,0,0,0,0,0,0,0,0,0,0,0,0,0,0,0,0,0,0,0,0,0,0,0,0,0,0,0,0,0,
0,0,0,0,0,0,0,0,0,0,0,0,0,0,0,0,0,0,0,0,0,0,0,0,0,0,0,0,0,0,0,0,0,0,0,0,0,0,0,0,0,0,0,0,0,0,0,0,0,0,0,0,0,0,0,0,0,0,0,0,0,0,0,0,
0,0,0,0,0,0,0,0,0,0,0,0,0,0,0,0,0,0,0,0,0,0,0,0,0,0,0,0,0,0,0,0,0,0,0,0,0,0,0,0,0,0,0,0,0,0,0,0,0,0,0,0,0,0,0,0,0,0,0,0,0,0,0,0,
0,0,0,0,0,0,0,0,0,0,0,0,0,0,0,0,0,0,0,0,0,0,0,0,0,0,0,0,0,0,0,0,0,0,0,0,0,0,0,0,0,0,0,0,0,0,0,0,0,0,0,0,0,0,0,0,0,0,0,0,0,0,0,0,
0,0,0,0,0,0,0,0,0,0,0,0,0,0,0,0,0,0,0,0,0,0,0,0,0,0,0,0,0,0,0,0,0,0,0,0,0,0,0,0,0,0,0,0,0,0,0,0,0,0,0,0,0,0,0,0,0,0,0,0,0,0,0,0,
0,0,0,0,0,0,0,0,0,0,0,0,0,0,0,0,0,0,0,0,0,0,0,0,0,0,0,0,0,0,0,0,0,0,0,0,0,0,0,0,0,0,0,0,0,0,0,0,0,0,0,0,0,0,0,0,0,0,0,0,0,0,0,0,
0,0,0,0,0,0,0,0,0,0,0,0,0,0,0,0,0,0,0,0,0,0,0,0,0,0,0,0,0,0,0,0,0,0,0,0,0,0,0,0,0,0,0,0,0,0,0,0,0,0,0,0,0,0,0,0,0,0,0,0,0,0,0,0,
0,0,0,0,0,0,0,0,0,0,0,0,0,0,0,0,0,0,0,0,0,0,0,0,0,0,0,0,0,0,0,0,0,0,0,0,0,0,0,0,0,0,0,0,0,0,0,0,0,0,0,0,0,0,0,0,0,0,0,0,0,0,0,0,
0,0,0,0,0,0,0,0,0,0,0,0,0,0,0,0,0,0,0,0,0,0,0,0,0,0,0,0,0,0,0,0,0,0,0,0,0,0,0,0,0,0,0,0,0,0,0,0,0,0,0,0,0,0,0,0,0,0,0,0,0,0,0,0,
0,0,0,0,0,0,0,0,0,0,0,0,0,0,0,0,0,0,0,0,0,0,0,0,0,0,0,0,0,0,0,0,0,0,0,0,0,0,0,0,0,0,0,0,0,0,0,0,0,0,0,0,0,0,0,0,0,0,0,0,0,0,0,0,
0,0,0,0,0,0,0,0,0,0,0,0,0,0,0,0,0,0,0,0,0,0,0,0,0,0,0,0,0,0,0,0,0,0,0,0,0,0,0,0,0,0,0,0,0,0,0,0,0,0,0,0,0,0,0,0,0,0,0,0,0,0,0,0,
0,0,0,0,0,0,0,0,0,0,0,0,0,0,0,0,0,0,0,0,0,0,0,0,0,0,0,0,0,0,0,0,0,0,0,0,0,0,0,0,0,0,0,0,0,0,0,0,0,0,0,0,0,0,0,0,0,0,0,0,0,0,0,0,
0,0,0,0,0,0,0,0,0,0,0,0,0,0,0,0,0,0,0,0,0,0,0,0,0,0,0,0,0,0,0,0,0,0,0,0,0,0,0,0,0,0,0,0,0,0,0,0,0,0,0,0,0,0,0,0,0,0,0,0,0,0,0,0,
0,0,0,0,0,0,0,0,0,0,0,0,0,0,0,0,0,0,0,0,0,0,0,0,0,0,0,0,0,0,0,0,0,0,0,0,0,0,0,0,0,0,0,0,0,0,0,0,0,0,0,0,0,0,0,0,0,0,0,0,0,0,0,0,
0,0,0,0,0,0,0,0,0,0,0,0,0,0,0,0,0,0,0,0,0,0,0,0,0,0,0,0,0,0,0,0,0,0,0,0,0,0,0,0,0,0,0,0,0,0,0,0,0,0,0,0,0,0,0,0,0,0,0,0,0,0,0,0,
0,0,0,0,0,0,0,0,0,0,0,0,0,0,0,0,0,0,0,0,0,0,0,0,0,0,0,0,0,0,0,0,0,0,0,0,0,0,0,0,0,0,0,0,0,0,0,0,0,0,0,0,0,0,0,0,0,0,0,0,0,0,0,0,
0,0,0,0,0,0,0,0,0,0,0,0,0,0,0,0,0,0,0,0,0,0,0,0,0,0,0,0,0,0,0,0,0,0,0,0,0,0,0,0,0,0,0,0,0,0,0,0,0,0,0,0,0,0,0,0,0,0,0,0,0,0,0,0,
0,0,0,0,0,0,0,0,0,0,0,0,0,0,0,0,0,0,0,0,0,0,0,0,0,0,35,36,37,0,0,0,0,0,0,0,0,0,0,0,0,0,0,0,0,0,0,0,0,0,0,0,0,0,0,0,0,0,0,0,0,0,0,0,
0,0,0,0,0,0,0,0,0,0,0,0,0,0,0,0,0,0,0,0,0,0,0,0,0,0,0,0,0,0,0,0,0,0,0,0,0,0,0,0,0,0,0,0,0,0,0,0,0,0,0,0,0,0,0,0,0,0,0,0,0,0,0,0,
0,0,0,0,0,0,0,0,0,0,0,0,0,0,0,0,0,0,0,0,0,0,0,0,0,0,0,0,0,0,0,0,0,0,0,0,0,0,0,0,0,0,0,35,36,37,0,0,0,0,0,0,0,0,0,0,0,0,0,0,0,0,0,0,
0,0,0,0,0,0,0,0,35,36,37,0,0,0,0,0,0,0,0,0,0,0,0,0,0,0,0,0,0,0,0,185,0,0,0,0,0,0,187,0,0,0,0,0,0,0,0,0,0,0,0,0,0,0,0,0,0,0,0,0,0,0,0,0,
0,0,0,0,0,0,0,0,0,0,0,0,0,0,0,0,0,0,0,0,0,0,0,0,0,0,0,0,0,0,0,0,0,0,0,0,0,0,0,0,0,0,0,0,0,0,0,0,0,0,0,0,0,0,0,0,0,0,0,0,0,0,0,0,
0,0,0,0,0,0,0,0,0,0,0,0,0,0,0,0,0,0,0,0,0,0,0,0,0,0,0,0,0,0,0,0,0,0,0,0,0,0,0,0,0,0,0,0,0,0,0,0,0,0,0,0,0,0,0,0,0,0,0,0,0,0,0,0,
0,0,0,0,0,0,0,0,0,0,0,0,0,0,0,0,0,0,0,0,0,0,0,0,0,0,0,0,0,0,0,0,0,0,0,0,0,0,0,0,0,0,0,0,0,0,0,0,0,0,0,0,0,0,0,0,0,0,0,0,0,0,0,0,
0,0,0,177,0,0,0,0,0,0,179,0,0,0,0,0,0,181,0,0,0,0,0,0,183,0,0,0,0,0,0,0,0,0,0,0,0,0,0,0,0,0,0,0,0,177,0,0,0,0,0,0,179,0,0,0,0,0,0,181,0,0,0,0,
0,0,0,0,0,0,0,0,0,0,0,0,0,0,0,0,0,0,0,0,0,0,0,0,0,0,0,0,0,0,0,0,0,0,0,0,0,0,0,0,0,0,0,0,0,0,0,0,0,0,0,0,0,0,0,0,0,0,0,0,0,0,0,0,
0,0,0,0,0,0,0,0,0,0,0,0,0,0,0,0,0,0,0,0,0,0,0,0,0,0,0,0,0,0,0,0,0,0,0,0,0,0,0,0,0,0,0,0,0,0,0,0,0,0,0,0,0,0,0,0,0,0,0,0,0,0,0,0,
0,0,0,0,0,0,0,0,0,0,0,0,0,0,0,0,0,0,0,0,0,0,0,0,0,0,0,0,0,0,0,0,0,0,0,0,0,0,0,0,0,0,0,0,0,0,0,0,0,0,0,0,0,0,0,0,0,0,0,0,0,0,0,0,
0,0,0,0,0,0,0,0,0,0,0,0,0,0,0,0,0,0,0,0,0,0,0,0,0,0,0,0,0,0,0,0,0,0,0,0,0,0,0,0,0,0,0,0,0,0,0,0,0,0,0,0,0,0,0,0,0,0,0,0,0,0,0,0,
0,0,0,0,0,0,0,0,0,0,0,0,0,0,0,0,0,0,0,0,0,0,0,0,0,0,0,0,0,0,0,0,0,0,0,0,0,0,0,0,0,0,0,0,0,0,0,0,0,0,0,0,0,0,0,0,0,0,0,0,0,0,0,0,
0,0,0,0,0,0,0,0,0,0,0,0,0,0,0,0,0,0,0,0,0,0,0,0,0,0,0,0,0,0,0,0,0,0,0,0,0,0,0,0,0,0,0,0,0,0,0,0,0,0,0,0,0,0,0,0,0,0,0,0,0,0,0,0
</data>
 </layer>
 <objectgroup id="4" name="objects">
  <object id="1" name="spawn" type="point" x="64" y="480" />
  <object id="2" name="goal" type="point" x="928" y="480" />
 </objectgroup>
</map>